X:54 
T:Duggan's Fancy*  
B:RC3.125 ("Old Set Tune" 7)
F:file ID roche.3/054dfj
Z:bill@capeirish.com
N:No repeats in source. I added a second ending to Part 2.
Q:160
L:1/8
M:6/8
R:jig
K:D
d/B/|A2A A2A|ABA ABA|A2d dcd|edB AFG|
A2A A2A|ABA Acd|e3 efe|d3 d2:|
e/f/|:g2g efg|f2f fed|e2d dcd|ecA Aef|
g2g efg|f2f fed|ecA Acd|1 efe dcB:|\
[2 edc d3-|d6|]

